images/hero-extension.svg

<svg width="435" height="646" viewBox="0 0 435 646" fill="none" xmlns="http://www.w3.org/2000/svg">
<g opacity="0.2" filter="url(#filter0_f_1_182)">
<path d="M12.8351 423.428C7.26172 426.362 7.10701 434.287 12.5617 437.436L364.134 640.393C370.158 643.871 377.557 643.969 383.671 640.652L422.01 619.85C427.521 616.859 427.607 608.98 422.162 605.871L69.0856 404.273C63.152 400.885 55.8994 400.761 49.8532 403.943L12.8351 423.428Z" fill="url(#paint0_linear_1_182)"/>
</g>
<g opacity="0.05" filter="url(#filter1_f_1_182)">
<rect width="339" height="339" rx="35" transform="matrix(0.866025 0.5 -2.20305e-08 1 91.2109 40)" fill="url(#paint1_linear_1_182)"/>
</g>
<g opacity="0.05" filter="url(#filter2_f_1_182)">
<rect width="339" height="339" rx="35" transform="matrix(0.866025 0.5 -2.20305e-08 1 111.211 20)" fill="url(#paint2_linear_1_182)"/>
</g>
<g opacity="0.05" filter="url(#filter3_f_1_182)">
<rect width="339" height="339" rx="35" transform="matrix(0.866025 0.5 -2.20305e-08 1 131.211 0)" fill="url(#paint3_linear_1_182)"/>
</g>
<path d="M72.3508 95.1437C72.3508 85.5469 75.7564 79.0951 80.9725 76.2049C86.056 73.3882 93.182 73.7727 101.274 78.4447L334.235 212.945C342.431 217.677 349.904 225.835 355.329 235.232C360.755 244.629 364.083 255.179 364.083 264.644V533.644C364.083 543.238 360.679 549.689 355.466 552.58C350.382 555.399 343.254 555.016 335.16 550.343L102.199 415.843C94.0028 411.11 86.5302 402.953 81.1047 393.556C75.6792 384.158 72.3508 373.608 72.3508 364.144L72.3508 95.1437Z" fill="#181734" stroke="black" stroke-width="1.85"/>
<path d="M99.8901 416.611L67.64 434.487C59.6202 429.719 52.3214 421.689 46.9953 412.464C41.6733 403.246 38.3692 392.919 38.245 383.595L70.5297 365.699C70.8686 375.143 74.2483 385.379 79.5034 394.481C84.7469 403.564 91.9025 411.594 99.8901 416.611Z" fill="#181734" stroke="black" stroke-width="1.85" stroke-linejoin="round"/>
<path d="M70.5016 96.7149L70.5016 363.6L38.2414 381.482L38.2414 114.597L70.5016 96.7149Z" fill="#181734" stroke="black" stroke-width="1.85" stroke-linejoin="round"/>
<path d="M332.82 551.128L300.597 568.989L69.5053 435.568L101.728 417.707L332.82 551.128Z" fill="#181734" stroke="black" stroke-width="1.85" stroke-linejoin="round"/>
<path d="M38.2734 112.464C38.6299 103.741 41.9401 97.8409 46.8631 95.1132L46.8632 95.1131L74.4833 79.803C71.9964 83.5141 70.585 88.5336 70.5052 94.5975L38.2734 112.464Z" fill="#181734" stroke="black" stroke-width="1.85" stroke-linejoin="round"/>
<path d="M334.692 552.205C339.766 555.05 344.62 556.354 348.942 556.197L321.356 571.489L321.356 571.489C316.578 574.138 309.996 573.959 302.502 570.049L334.692 552.205Z" fill="#181734" stroke="black" stroke-width="1.85" stroke-linejoin="round"/>
<path d="M53.3823 91.4985L80.9725 76.2049C80.9726 76.2049 80.9726 76.2049 80.9727 76.2049C85.75 73.5578 92.3312 73.7381 99.8228 77.647L67.6325 95.4904C62.5585 92.6458 57.7042 91.3413 53.3823 91.4985Z" fill="#181734" stroke="black" stroke-width="1.85" stroke-linejoin="round"/>
<path d="M355.466 552.581L327.842 567.893C330.329 564.182 331.74 559.163 331.82 553.099L364.052 535.233C363.696 543.953 360.387 549.852 355.466 552.581Z" fill="#181734" stroke="black" stroke-width="1.85" stroke-linejoin="round"/>
<path d="M300.597 229.989L69.5053 96.5685L101.728 78.7073L332.82 212.128L300.597 229.989Z" fill="#181734" stroke="black" stroke-width="1.85" stroke-linejoin="round"/>
<path d="M364.084 533.1L331.823 550.982V284.097L364.084 266.215V533.1Z" fill="#181734" stroke="black" stroke-width="1.85" stroke-linejoin="round"/>
<path d="M364.08 264.102L331.796 281.997C331.457 272.554 328.077 262.317 322.822 253.215C317.578 244.133 310.423 236.103 302.435 231.086L334.685 213.209C342.705 217.977 350.004 226.008 355.33 235.233C360.652 244.451 363.956 254.778 364.08 264.102Z" fill="#181734" stroke="black" stroke-width="1.85" stroke-linejoin="round"/>
<rect width="339" height="339" rx="35" transform="matrix(0.866025 0.5 -2.20305e-08 1 37.3164 79.0527)" fill="#181734" stroke="black" stroke-width="1.85"/>
<path fill-rule="evenodd" clip-rule="evenodd" d="M197.11 260.043C196.153 259.491 195.378 258.148 195.378 257.043L195.378 250.497L195.378 248.816C195.378 248.8 195.367 248.781 195.353 248.773C195.34 248.765 195.329 248.747 195.328 248.731C194.555 234.934 184.931 218.825 173.173 212.037C161.415 205.248 151.792 210.245 151.018 223.149C151.017 223.164 151.006 223.169 150.993 223.162C150.979 223.154 150.968 223.16 150.968 223.176L150.968 224.857L150.968 231.403C150.968 232.508 150.193 232.956 149.236 232.403L124.322 218.019C112.876 211.411 103.598 216.768 103.598 229.985L103.598 265.294C103.598 266.943 105.26 268.884 106.521 268.839C109.623 268.728 113.163 269.694 116.921 271.863C129.184 278.944 139.126 296.163 139.126 310.323C139.126 324.484 129.184 330.224 116.921 323.143C113.163 320.974 109.623 317.852 106.521 314.159C105.26 312.657 103.598 312.68 103.598 314.329L103.598 346.219C103.598 359.436 112.876 375.507 124.322 382.115L150.655 397.318C151.959 398.072 152.809 396.947 152.355 395.273C151.458 391.972 150.968 388.678 150.968 385.534C150.968 371.373 160.91 365.634 173.173 372.714C185.436 379.794 195.378 397.013 195.378 411.174C195.378 414.318 194.888 417.046 193.991 419.312C193.537 420.461 194.387 422.567 195.692 423.32L222.024 438.523C233.47 445.132 242.748 439.775 242.748 426.558L242.748 397.79C242.748 396.685 243.524 396.238 244.48 396.79L251.607 400.904C251.62 400.912 251.63 400.906 251.63 400.891C251.63 400.875 251.642 400.869 251.655 400.878C252.136 401.192 252.622 401.49 253.111 401.773C265.374 408.853 275.316 403.113 275.316 388.953C275.316 374.792 265.374 357.573 253.111 350.493C252.622 350.21 252.136 349.948 251.655 349.707C251.642 349.7 251.63 349.681 251.63 349.665C251.63 349.65 251.62 349.632 251.607 349.624L244.48 345.51C243.524 344.958 242.748 343.615 242.748 342.51L242.748 310.323C242.748 297.107 233.47 281.036 222.024 274.427L197.11 260.043Z" fill="#2C2A53" stroke="black" stroke-width="1.85"/>
<path d="M70.8427 158.314C76.5594 161.614 81.17 158.836 81.17 152.159C81.17 145.482 76.5594 137.379 70.8427 134.079C65.126 130.778 60.5153 133.557 60.5153 140.234C60.5153 146.911 65.126 155.013 70.8427 158.314ZM70.8427 195.621C76.5594 198.922 81.17 196.143 81.17 189.466C81.17 182.789 76.5594 174.687 70.8427 171.387C65.126 168.086 60.5153 170.864 60.5153 177.541C60.5153 184.218 65.126 192.321 70.8427 195.621ZM70.8427 232.929C76.5594 236.229 81.17 233.451 81.17 226.774C81.17 220.097 76.5594 211.995 70.8427 208.694C65.126 205.394 60.5153 208.172 60.5153 214.849C60.5153 221.526 65.126 229.628 70.8427 232.929Z" fill="white" stroke="black" stroke-width="1.85"/>
<defs>
<filter id="filter0_f_1_182" x="6.56131" y="399.641" width="421.634" height="245.431" filterUnits="userSpaceOnUse" color-interpolation-filters="sRGB">
<feFlood flood-opacity="0" result="BackgroundImageFix"/>
<feBlend mode="normal" in="SourceGraphic" in2="BackgroundImageFix" result="shape"/>
<feGaussianBlur stdDeviation="1" result="effect1_foregroundBlur_1_182"/>
</filter>
<filter id="filter1_f_1_182" x="90.2109" y="52.3602" width="295.583" height="483.78" filterUnits="userSpaceOnUse" color-interpolation-filters="sRGB">
<feFlood flood-opacity="0" result="BackgroundImageFix"/>
<feBlend mode="normal" in="SourceGraphic" in2="BackgroundImageFix" result="shape"/>
<feGaussianBlur stdDeviation="0.5" result="effect1_foregroundBlur_1_182"/>
</filter>
<filter id="filter2_f_1_182" x="110.211" y="32.3602" width="295.583" height="483.78" filterUnits="userSpaceOnUse" color-interpolation-filters="sRGB">
<feFlood flood-opacity="0" result="BackgroundImageFix"/>
<feBlend mode="normal" in="SourceGraphic" in2="BackgroundImageFix" result="shape"/>
<feGaussianBlur stdDeviation="0.5" result="effect1_foregroundBlur_1_182"/>
</filter>
<filter id="filter3_f_1_182" x="130.211" y="12.3602" width="295.583" height="483.78" filterUnits="userSpaceOnUse" color-interpolation-filters="sRGB">
<feFlood flood-opacity="0" result="BackgroundImageFix"/>
<feBlend mode="normal" in="SourceGraphic" in2="BackgroundImageFix" result="shape"/>
<feGaussianBlur stdDeviation="0.5" result="effect1_foregroundBlur_1_182"/>
</filter>
<linearGradient id="paint0_linear_1_182" x1="232.292" y1="454.168" x2="690.292" y2="972.169" gradientUnits="userSpaceOnUse">
<stop stop-color="#3A17CA"/>
<stop offset="1" stop-color="#3A17CA" stop-opacity="0"/>
</linearGradient>
<linearGradient id="paint1_linear_1_182" x1="-84.049" y1="36.117" x2="-33.3484" y2="295.023" gradientUnits="userSpaceOnUse">
<stop stop-color="white"/>
<stop offset="1" stop-color="white" stop-opacity="0"/>
</linearGradient>
<linearGradient id="paint2_linear_1_182" x1="-84.049" y1="36.117" x2="-33.3484" y2="295.023" gradientUnits="userSpaceOnUse">
<stop stop-color="white"/>
<stop offset="1" stop-color="white" stop-opacity="0"/>
</linearGradient>
<linearGradient id="paint3_linear_1_182" x1="-84.049" y1="36.117" x2="-33.3484" y2="295.023" gradientUnits="userSpaceOnUse">
<stop stop-color="white"/>
<stop offset="1" stop-color="white" stop-opacity="0"/>
</linearGradient>
</defs>
</svg>

<svg xmlns="http://www.w3.org/2000/svg" width="435" height="646" fill="none"><g filter="url(#a)" opacity=".2"><path fill="url(#b)" d="M12.835 423.428c-5.573 2.934-5.728 10.859-.273 14.008l351.572 202.957a20 20 0 0 0 19.537.259l38.339-20.802c5.511-2.991 5.597-10.87.152-13.979L69.086 404.273a20.001 20.001 0 0 0-19.233-.33l-37.018 19.485Z"/></g><g filter="url(#c)" opacity=".05"><rect width="339" height="339" fill="url(#d)" rx="35" transform="matrix(.86603 .5 0 1 91.21 40)"/></g><g filter="url(#e)" opacity=".05"><rect width="339" height="339" fill="url(#f)" rx="35" transform="matrix(.86603 .5 0 1 111.211 20)"/></g><g filter="url(#g)" opacity=".05"><rect width="339" height="339" fill="url(#h)" rx="35" transform="matrix(.86603 .5 0 1 131.211 0)"/></g><path fill="#181734" stroke="#000" stroke-width="1.85" d="M72.35 95.144c0-9.597 3.406-16.049 8.623-18.94 5.083-2.816 12.209-2.431 20.301 2.24l232.961 134.501c8.196 4.732 15.669 12.89 21.094 22.287 5.426 9.397 8.754 19.947 8.754 29.412v269c0 9.594-3.404 16.045-8.617 18.936-5.084 2.819-12.212 2.436-20.306-2.237l-232.961-134.5c-8.196-4.733-15.669-12.89-21.094-22.287-5.426-9.398-8.754-19.948-8.754-29.412v-269Z"/><path fill="#181734" stroke="#000" stroke-linejoin="round" stroke-width="1.85" d="m99.89 416.611-32.25 17.876c-8.02-4.768-15.319-12.798-20.645-22.023-5.322-9.218-8.626-19.545-8.75-28.869l32.285-17.896c.339 9.444 3.718 19.68 8.973 28.782 5.244 9.083 12.4 17.113 20.387 22.13ZM70.502 96.715V363.6l-32.26 17.882V114.597l32.26-17.882ZM332.82 551.128l-32.223 17.861L69.505 435.568l32.223-17.861L332.82 551.128ZM38.273 112.464c.357-8.723 3.667-14.623 8.59-17.35l27.62-15.311c-2.487 3.711-3.898 8.73-3.978 14.794l-32.232 17.867ZM334.692 552.205c5.074 2.845 9.928 4.149 14.25 3.992l-27.586 15.292c-4.778 2.649-11.36 2.47-18.854-1.44l32.19-17.844Z"/><path fill="#181734" stroke="#000" stroke-linejoin="round" stroke-width="1.85" d="m53.382 91.499 27.59-15.294c4.778-2.647 11.36-2.467 18.85 1.442L67.633 95.49c-5.074-2.844-9.928-4.149-14.25-3.991ZM355.466 552.581l-27.624 15.312c2.487-3.711 3.898-8.73 3.978-14.794l32.232-17.866c-.356 8.72-3.665 14.619-8.586 17.348ZM300.597 229.989 69.505 96.569l32.223-17.862L332.82 212.128l-32.223 17.861ZM364.084 533.1l-32.261 17.882V284.097l32.261-17.882V533.1ZM364.08 264.102l-32.284 17.895c-.339-9.443-3.719-19.68-8.974-28.782-5.244-9.082-12.399-17.112-20.387-22.129l32.25-17.877c8.02 4.768 15.319 12.799 20.645 22.024 5.322 9.218 8.626 19.545 8.75 28.869Z"/><rect width="339" height="339" fill="#181734" stroke="#000" stroke-width="1.85" rx="35" transform="matrix(.86603 .5 0 1 37.316 79.053)"/><path fill="#2C2A53" fill-rule="evenodd" stroke="#000" stroke-width="1.85" d="M197.11 260.043c-.957-.552-1.732-1.895-1.732-3v-8.227a.054.054 0 0 0-.025-.043.058.058 0 0 1-.025-.042c-.773-13.797-10.397-29.906-22.155-36.694-11.758-6.789-21.381-1.792-22.155 11.112-.001.015-.012.02-.025.013-.014-.008-.025-.002-.025.014v8.227c0 1.105-.775 1.553-1.732 1l-24.914-14.384c-11.446-6.608-20.724-1.251-20.724 11.966v35.309c0 1.649 1.662 3.59 2.923 3.545 3.102-.111 6.642.855 10.4 3.024 12.263 7.081 22.205 24.3 22.205 38.46 0 14.161-9.942 19.901-22.205 12.82-3.758-2.169-7.298-5.291-10.4-8.984-1.261-1.502-2.923-1.479-2.923.17v31.89c0 13.217 9.278 29.288 20.724 35.896l26.333 15.203c1.304.754 2.154-.371 1.7-2.045-.897-3.301-1.387-6.595-1.387-9.739 0-14.161 9.942-19.9 22.205-12.82 12.263 7.08 22.205 24.299 22.205 38.46 0 3.144-.49 5.872-1.387 8.138-.454 1.149.396 3.255 1.701 4.008l26.332 15.203c11.446 6.609 20.724 1.252 20.724-11.965V397.79c0-1.105.776-1.552 1.732-1l7.127 4.114c.013.008.023.002.023-.013 0-.016.012-.022.025-.013.481.314.967.612 1.456.895 12.263 7.08 22.205 1.34 22.205-12.82 0-14.161-9.942-31.38-22.205-38.46a27.524 27.524 0 0 0-1.456-.786.053.053 0 0 1-.025-.042.053.053 0 0 0-.023-.041l-7.127-4.114c-.956-.552-1.732-1.895-1.732-3v-32.187c0-13.216-9.278-29.287-20.724-35.896l-24.914-14.384Z" clip-rule="evenodd"/><path fill="#fff" stroke="#000" stroke-width="1.85" d="M70.843 158.314c5.716 3.3 10.327.522 10.327-6.155 0-6.677-4.61-14.78-10.327-18.08-5.717-3.301-10.328-.522-10.328 6.155 0 6.677 4.611 14.779 10.328 18.08Zm0 37.307c5.716 3.301 10.327.522 10.327-6.155 0-6.677-4.61-14.779-10.327-18.079-5.717-3.301-10.328-.523-10.328 6.154s4.611 14.78 10.328 18.08Zm0 37.308c5.716 3.3 10.327.522 10.327-6.155 0-6.677-4.61-14.779-10.327-18.08-5.717-3.3-10.328-.522-10.328 6.155 0 6.677 4.611 14.779 10.328 18.08Z"/><defs><linearGradient id="b" x1="232.292" x2="690.292" y1="454.168" y2="972.169" gradientUnits="userSpaceOnUse"><stop stop-color="#3A17CA"/><stop offset="1" stop-color="#3A17CA" stop-opacity="0"/></linearGradient><linearGradient id="d" x1="-84.049" x2="-33.348" y1="36.117" y2="295.023" gradientUnits="userSpaceOnUse"><stop stop-color="#fff"/><stop offset="1" stop-color="#fff" stop-opacity="0"/></linearGradient><linearGradient id="f" x1="-84.049" x2="-33.348" y1="36.117" y2="295.023" gradientUnits="userSpaceOnUse"><stop stop-color="#fff"/><stop offset="1" stop-color="#fff" stop-opacity="0"/></linearGradient><linearGradient id="h" x1="-84.049" x2="-33.348" y1="36.117" y2="295.023" gradientUnits="userSpaceOnUse"><stop stop-color="#fff"/><stop offset="1" stop-color="#fff" stop-opacity="0"/></linearGradient><filter id="a" width="421.634" height="245.431" x="6.561" y="399.641" color-interpolation-filters="sRGB" filterUnits="userSpaceOnUse"><feFlood flood-opacity="0" result="BackgroundImageFix"/><feBlend in="SourceGraphic" in2="BackgroundImageFix" result="shape"/><feGaussianBlur result="effect1_foregroundBlur_1_182" stdDeviation="1"/></filter><filter id="c" width="295.583" height="483.78" x="90.211" y="52.36" color-interpolation-filters="sRGB" filterUnits="userSpaceOnUse"><feFlood flood-opacity="0" result="BackgroundImageFix"/><feBlend in="SourceGraphic" in2="BackgroundImageFix" result="shape"/><feGaussianBlur result="effect1_foregroundBlur_1_182" stdDeviation=".5"/></filter><filter id="e" width="295.583" height="483.78" x="110.211" y="32.36" color-interpolation-filters="sRGB" filterUnits="userSpaceOnUse"><feFlood flood-opacity="0" result="BackgroundImageFix"/><feBlend in="SourceGraphic" in2="BackgroundImageFix" result="shape"/><feGaussianBlur result="effect1_foregroundBlur_1_182" stdDeviation=".5"/></filter><filter id="g" width="295.583" height="483.78" x="130.211" y="12.36" color-interpolation-filters="sRGB" filterUnits="userSpaceOnUse"><feFlood flood-opacity="0" result="BackgroundImageFix"/><feBlend in="SourceGraphic" in2="BackgroundImageFix" result="shape"/><feGaussianBlur result="effect1_foregroundBlur_1_182" stdDeviation=".5"/></filter></defs></svg>
